!!!OTL: Das arme Maegdlein
!!!SCT: A0212A
!!!YEM: Copyright 1995, estate of Helmut Schaffrath.
**kern
*ICvox
*Ivox
*M4/2
*k[b-e-]
*g:
{2g
=1
2g
2g
2g
2d
=2
2.g
4a
2b-
2cc
=3
4dd
4b-
4a
4g
2a
2a
=4
1g
2r}
{2g
=5
2a
2a
2dd
2a
=6
1b-
4a
4g
2cc
=7
1a
2r}
{2g
=8
2g
2g
2g
2d
=9
2.g
4a
2b-
2cc
=10
4dd
4b-
4a
4g
2a
2a
=11
1g
2r}
{2g
=12
2a
2a
2dd
2a
=13
1b-
4a
4g
2cc
=14
1a
2r}
{2a
=15
2b-
2a
2.dd
4cc
=16
2b-
2a
2g}
{2a
=17
2fn
2g
2.a
4g
=18
2fn
4e
4d
1e
=19
1d
2r}
{2d
=20
2g
2f#
1g
=21
2r
2a
2b-
2a
=22
1g
2r}
{2dd
=23
2dd
2dd
2a
2dd
=24
2cc
2b-
2cc
2a
=25
1g
2r}
{2dd
=26
2b-
2a
2g
2d
=27
2.g
4a
2b-
2cc
=28
4dd
4b-
4a
4g
1a
=29
1.g}
==
!!!AGN: Romanze, Ballade, Lied
!! Forster III 1549 No. 31.
!!!ONB: ESAC (Essen Associative Code) Database: ALTDEU
!!!AMT: simple quadruple
!!!AIN: vox
!!!EED: Helmut Schaffrath
!!!EEV: 1.0
*-
